img/svg/bonus-box.svg

<svg width="20" height="20" viewBox="0 0 20 20" fill="none" xmlns="http://www.w3.org/2000/svg">
<path d="M9.81196 17.7561V6.11976M8.4578 5.42169C8.60186 5.45401 8.75366 5.41439 8.85737 5.31067C8.96109 5.20696 9.00065 5.0551 8.96839 4.9111C8.83909 4.38295 8.36281 2.61441 7.87376 2.12535C7.26446 1.51605 6.27279 1.51352 5.6665 2.1198C5.06026 2.72605 5.06271 3.71771 5.67206 4.32706C6.16911 4.82411 7.92966 5.2924 8.4578 5.42169ZM9.93661 4.91105C9.90428 5.05511 9.94391 5.20692 10.0476 5.31063C10.1513 5.41435 10.3032 5.45391 10.4472 5.42165C10.9754 5.29235 12.7439 4.81607 13.2329 4.32701C13.8422 3.71771 13.8448 2.72605 13.2385 2.11976C12.6322 1.51352 11.6406 1.51597 11.0312 2.12531C10.5342 2.62237 10.0659 4.38292 9.93661 4.91105ZM2.24832 10.1925H17.0847C17.406 10.1925 17.6665 9.932 17.6665 9.61067V6.70158C17.6665 6.38025 17.406 6.11976 17.0847 6.11976H2.24832C1.92699 6.11976 1.6665 6.38025 1.6665 6.70158V9.61067C1.6665 9.932 1.92699 10.1925 2.24832 10.1925ZM16.212 10.1925V17.1743C16.212 17.4956 15.9515 17.7561 15.6301 17.7561H3.70287C3.38154 17.7561 3.12105 17.4956 3.12105 17.1743V10.1925H16.212Z" stroke="#EB771A" stroke-linecap="round" stroke-linejoin="round"/>
</svg>

<svg width="20" height="20" viewBox="0 0 20 20" fill="none" xmlns="http://www.w3.org/2000/svg"><path d="M9.812 17.756V6.12m-1.354-.698a.43.43 0 00.4-.111.43.43 0 00.11-.4c-.129-.528-.605-2.297-1.094-2.786a1.564 1.564 0 00-2.207-.005 1.564 1.564 0 00.005 2.207c.497.497 2.258.965 2.786 1.095zm1.479-.51a.43.43 0 00.11.399.43.43 0 00.4.11c.528-.129 2.297-.605 2.786-1.094.61-.61.612-1.601.005-2.207a1.564 1.564 0 00-2.207.005c-.497.497-.965 2.258-1.094 2.786zm-7.689 5.28h14.837a.58.58 0 00.581-.581V6.7a.582.582 0 00-.581-.581H2.248a.582.582 0 00-.582.582V9.61c0 .321.261.582.582.582zm13.964 0v6.982c0 .322-.26.582-.582.582H3.703a.582.582 0 01-.582-.582v-6.981h13.091z" stroke="#EB771A" stroke-linecap="round" stroke-linejoin="round"/></svg>
